X: 13364
T: Flax In Bloom, The
R: reel
M: 4/4
K: Dmajor
|:D2ED FAAf|gefd edBd|BAFB ABdf|(3gfe fd edBd|
D2ED FAAf|gefd edBd|BAFB ABdf|1 afeg fdAF:|2 afeg fede||
|:f2df e2ce|dfed BAFA|DFAd FAdf|(3gfe fd edBd|
f2df e2ce|dfed BAFA|DFAd FAdf|1 afeg fede:|2 afeg fdde||
|:~f2af dfaf|~g2fg eBB/B/B|fdd/d/d Adfd|ceae c/d/e ae|
~f2af dfaf|~g2fg eBB/B/B|AFF/F/F ABdf|1 afeg fdde:|2 afeg fddA||

